X: 1
T: Brilliancy Medley
M: 4/4
L: 1/8
R: reel
K: Amaj
|:g2 | aece aece | aecA BA F2 | E3 c dBcA | B2 e2  e2 eg |
aece aece | aecA BA F2 | E2 EF ABcA | B2 A2  A2  :|
|:A2 | A2 cA G2 BG | FEFG AGFE | D2 FD C2 EC | B,A,B,C B,DCB,|
A,CEF A2 cA | BABc dcBA | Bcde fgaf | edcB  A2 :|
